X: 18968
T: Inisheer
R: waltz
M: 3/4
K: Gmajor
DGA|B3 A B<d|B3 A B<d|E3 cBG|A3
DGA|B3 A B<d|B3 AB<d|D3 B A/G/F|G3:|
ABd|e3 fed|B3 ABd|e3 dBd|e3 fgf|
e3 fed|B3 ABd|D3 B A/G/F|G3:|

